X: 25879
T: Matt Hayes'
R: polka
M: 2/4
K: Dmajor
|:B|AD F>G|A/B/A/G/ FG|AF EG|EF GE|
AD F>G|A/B/A/G/ FG|AF EG|FD D:|
|:d|fg/f/ ed|cA A>d|fg/f/ ed|ea a2|
fg/f/ ed|cA A>B|AF EG|FD D:|

